src/icons/IconCopy/IconCopy_size_s.svg

<svg viewBox="0 0 16 16" xmlns="http://www.w3.org/2000/svg">
  <path
    d="M1 6C1 5.44772 1.44772 5 2 5H10C10.5523 5 11 5.44772 11 6V14C11 14.5523 10.5523 15 10 15H2C1.44772 15 1 14.5523 1 14V6Z"
  />
  <path
    d="M6 1C5.44772 1 5 1.44772 5 2V3H12C12.5523 3 13 3.44772 13 4V11H14C14.5523 11 15 10.5523 15 10V2C15 1.44772 14.5523 1 14 1H6Z"
  />
</svg>

<svg viewBox="0 0 16 16" xmlns="http://www.w3.org/2000/svg">
  <path d="M1 6a1 1 0 011-1h8a1 1 0 011 1v8a1 1 0 01-1 1H2a1 1 0 01-1-1V6z" />
  <path d="M6 1a1 1 0 00-1 1v1h7a1 1 0 011 1v7h1a1 1 0 001-1V2a1 1 0 00-1-1H6z" />
</svg>
